img/union-1.svg

<svg fill="none" height="30" viewBox="0 0 29 30" width="29" xmlns="http://www.w3.org/2000/svg"><path d="m.373047 28.8574h-.37088061l.00000002.3709h.37088059zm14.093453 0v.3709zm0-27.81601c7.5788 0 13.7226 6.1438 13.7226 13.72261h.7417c0-7.98847-6.4759-14.464374-14.4643-14.464373zm-13.722573 13.72261c-.000001-7.57881 6.143803-13.72261 13.722573-13.72261v-.741763c-7.98843 0-14.46433457 6.475903-14.46433422 14.464373zm0 14.0934v-14.0934h-.74176122l.00000061 14.0934zm13.722573-.3709h-14.093453v.7418h14.093453zm13.7226-13.7225c0 7.5787-6.1438 13.7225-13.7226 13.7225v.7418c7.9884 0 14.4643-6.4759 14.4643-14.4643z" fill="#5b57ca"/></svg>

<svg width="29" height="30" viewBox="0 0 29 30" fill="none" xmlns="http://www.w3.org/2000/svg">
<path d="M0.373047 28.8574L0.00216639 28.8574L0.00216641 29.2283L0.373047 29.2283L0.373047 28.8574ZM14.4665 28.8574L14.4665 29.2283L14.4665 28.8574ZM14.4665 1.04139C22.0453 1.04139 28.1891 7.18519 28.1891 14.764L28.9308 14.764C28.9308 6.77553 22.4549 0.299626 14.4665 0.299627L14.4665 1.04139ZM0.743927 14.764C0.743926 7.18519 6.88773 1.04139 14.4665 1.04139L14.4665 0.299627C6.47807 0.299627 0.00216543 6.77553 0.00216578 14.764L0.743927 14.764ZM0.743927 28.8574L0.743927 14.764L0.00216578 14.764L0.00216639 28.8574L0.743927 28.8574ZM14.4665 28.4865L0.373047 28.4865L0.373047 29.2283L14.4665 29.2283L14.4665 28.4865ZM28.1891 14.764C28.1891 22.3427 22.0453 28.4865 14.4665 28.4865L14.4665 29.2283C22.4549 29.2283 28.9308 22.7524 28.9308 14.764L28.1891 14.764Z" fill="#5B57CA"/>
</svg>
